X:1
T:Oh That I Knew Where I Might Find Him
T:Sir William Sterndale Bennett edit BMarble
T:Oh That I Knew Where I Might Find Him
T:Copyright © 2017 by The Choral Public Domain Library. Edition may be freely distributed, duplicated, performed or recorded.
T:Copyright © 2017 by The Choral Public Domain Library. Edition may be freely distributed, duplicated, performed or recorded.
T:Copyright © 2017 by The Choral Public Domain Library. Edition may be freely distributed, duplicated, performed or recorded.
T:Copyright © 2017 by The Choral Public Domain Library. Edition may be freely distributed, duplicated, performed or recorded.
T:Copyright © 2017 by The Choral Public Domain Library. Edition may be freely distributed, duplicated, performed or recorded.
T:Copyright © 2017 by The Choral Public Domain Library. Edition may be freely distributed, duplicated, performed or recorded.
T:Copyright © 2017 by The Choral Public Domain Library. Edition may be freely distributed, duplicated, performed or recorded.
T:Copyright © 2017 by The Choral Public Domain Library. Edition may be freely distributed, duplicated, performed or recorded.
T:Copyright © 2017 by The Choral Public Domain Library. Edition may be freely distributed, duplicated, performed or recorded.
C:Sir William Sterndale Bennett
C:edit BMarble
Z:Copyright © 2017 by The Choral Public Domain Library. Edition may be freely distributed, duplicated, performed or recorded.
%%score [ 1 2 3 4 ]
L:1/8
Q:1/2=92
M:3/2
K:Bb
V:1 treble nm="Soprano" snm="S."
V:2 treble nm="Alto" snm="A."
V:3 treble-8 transpose=-12 nm="Tenor" snm="T."
V:4 bass nm="Bass" snm="B."
V:1
 G4 G4 G4 | B8 A4 | d4 G8 | G4 ^F4 z4 | G4 G4 G4 | G4 G6 A2 | B4 G8 | ^F8 z4 | G4 G4 G4 | B8 B4 | %10
w: Oh that I|knew where|I might|find him,|that I might|come ev- en|to his|seat!|Oh that I|knew where|
 e4 B8 | c4 B8 | _A4 A4 A4 | G4 G6 G2 | G8- G2 G2 | G8 G4 | B6 B2 c4 | d4 G4 z4 | z12 | z4 z4 G4 | %20
w: I might|find him,|that I might|come ev- en|to _ his|seat! Be-|hold I go|for- ward,||and|
 e8 G4 | G8 G4 | F4 B4 B4 | B4 A4 F4 | d4 c4 B4 | B4 A4 F4 | f4 d4 c4 | c8 F4 | _d4 B4 z4 | E8 F4 | %30
w: back- ward|yet I|can- not per-|ceive him. Be-|hold I go|for- ward but|he is not|there, and|back- ward|yet I|
 _d4 B4 F4 | _G4 F4 F4 | B12- | B4 _d4 c4 | F12 | F8 z4 | z12 | A4 d4 ^c4 | d8 d3 d | f8 d4 | %40
w: can- not per-|ceive him. I|can-|* not per-|ceive|him,||where he doth|work, on the|right hand|
 A4 A4 A4 | A8 d2 d2 | d4 c4 B4 | B4 A4 G4 | G4 ^F4 G4 | B4 A4 D4 | G4 G4 G4 | G12 | G4 G4 G4 | %49
w: where he doth|work, but I|can- not be-|hold him, I|can- not be-|hold him. He|hi- deth him-|self|on the right|
 G8 G4 | G4 G4 G4 | (G4 _A4) z4 | =A4 A4 A4 | (A4 B4) z4 | =B4 B4 B4 | (=B4 c4) e4 | d8 G4- | %57
w: hand, he|hi- deth him-|self _|on the right|hand, _|hi- deth him-|self _ him-|self on|
 G8 G4 | G12 | ^F12 |:[K:G][M:2/2][Q:1/2=60] (F2 G2) A2 B2 | (c2 B2) (A2 G2) | F2 G2 A2 B2 | %63
w: _ the|right|hand.|Bless- * ed are|they, _ are _|they that have not|
 c6 c2 | c4 e4 | d6 d2 | g4 c3 B | B4 A2 z2 | (d6 B2) | G2 A2 D2 D2 | d6 B2 | G2 A2 D2 D2 | %72
w: seen, that|have not|seen, and|yet have be-|lie- ved,|bless- *|ed are they, are|they that|have not seen, that|
 B2 ^c2 d4 | z2 B2 A2 A2 | (f2 d2) A2 F2 | G4 F2 z2 :| A4 c4- | c2 c2 B4- | B2 B2 e2 e2 | %79
w: have not seen,|not seen, and|yet _ have be-|lie- ved.|Bless- ed|_ are they|_ that have not|
 (e4 ^d2) z2 | z4 z2 c2 | c4 ^D4 | z4 z2 c2 | (c4 ^D2) B2 | B4 e4 | =d6 d2 | g4 c3 B | B4 A2 z2 | %88
w: seen, _|that|have not,|not|seen, _ that|have not|seen and|yet have be-|lie- ved,|
 d6 B2 | (G2 A2) D2 E2 | e6 c2 | A2 B2 E2 E2 | c2 d2 e4- | (e2 g2) (f2 e2) | d4 c3 B | B4 A2 d2 | %96
w: Bless- ed,|bless- * ed are|they that|have not seen, that|have not seen|_ _ and _|yet have be-|lie- ved, that|
 g6 f2 | e6 d2 | c6 B2- | B2 G4 F2 | G2 G2 c4- | (c2 B2) c2 d2 | e4 e4- | e2 A2 d4- | d4 d4 | %105
w: have not|seen, that|have not,|_ have not|seen, and yet|_ _ have be-|lie- ved,|_ that have|_ not|
 c4 c4 | (c2 B4) A2 | G8- | G4 G4 | (A2 B2) c4- | c4 B4 | A4 G4 | (G8 | F8) | G8 |] %115
w: seen not|seen _ and|yet,|_ and|yet _ have,|_ yet|have be-|lie-||ved.|
V:2
 D4 D4 D4 | G8 ^F4 | G8 D4 | D4 D4 z4 | D4 D4 D4 | B,4 E6 E2 | D4 E8 | D8 z4 | D4 D4 D4 | G8 G4 | %10
w: Oh that I|knew where|I might|find him,|that I might|come ev- en|to his|seat!|Oh that I|knew where|
 E8 E4 | D4 E8 | D4 D4 D4 | E4 E6 E2 | E8 C4 | B,8 z4 | z12 | z8 D4 | D4 D6 D2 | (D4 C4) z4 | z12 | %21
w: I might|find him,|that I might|come ev- en|to his|seat!||and|he is not|there _||
 E12 | (E4 D4) E4 | F8 z4 | F8 F4 | F4 F4 F4 | F4 B4 B4 | A8 z4 | F8 B,4 | _G4 F4 z4 | F8 F4 | %31
w: he|is _ not|there,|I go|for- ward but|he is not|there,|I go|for- ward|yet I|
 E4 E4 E4 | (_D4 E4 F4) | _G4 F4 E4 | E12 | =D8 z4 | z12 | F4 F4 =E4 | F8 z4 | z12 | D4 ^C4 =E4 | %41
w: can- not, I|can- * *|* not per-|ceive|him,||where he doth|work,||where he doth|
 D8 D2 D2 | _E4 G4 F4 | E8 E4 | D4 D4 D4 | ^C4 D4 z4 | D12 | =C4 C4 C4 | C12 | B,4 B,4 B,4 | %50
w: work, but I|can- not be-|hold I|can- not be-|hold him.|He|hi- deth him-|self,|hi- deth him-|
 _D12- | D4 C4 E4- | E8 E4 | (E4 D4) z4 | F12 | F4 E4 G4 | G8 D4- | D8 D4 | ^C12 | D12 |: %60
w: self|_ on the|_ right|hand, _|he|hi- deth him|self on|_ the|right|hand.|
[K:G][M:2/2] (D2 E2) F2 G2 | (A2 G2) (F2 E2) | D2 E2 F2 G2 | A6 G2 | F4 F4 | G6 G2 | G4 G3 G | %67
w: Bless- * ed are|they, _ are _|they that have not|seen, that|have not|seen, and|yet have be-|
 G4 F2 z2 | z2 (D2 E2) F2 | G2 C4 C2 | (B,2 D2) (E2 F2) | G2 C6 | B,2 E2 D2 E2 | F2 G4 F2 | %74
w: lie- ved,|bless- * ed|are they, are|they _ that _|have not,|have not seen, and|yet have be-|
 (B,4 D4-) | (D2 ^C2) D2 z2 :| =F4 E4- | E2 E2 ^D4 | E8 | (G4 F2) B2 | A2 G2 F2 E2 | %81
w: lie- *|* * ved.|Bless- ed|_ are they|that|seen, _ are|they that have not|
 (^D2 E2) (F2 G2) | (A2 G2) (F2 E2) | (^D2 E2) F4 | G4 F4 | G6 G2 | G4 G3 G | G4 F2 z2 | %88
w: seen, _ that _|have _ not _|seen, _ that|have not|seen and|yet have be-|lie- ved,|
 z2 (=D2 E2) F2 | G2 C4 z2 | z4 E4- | E2 D4 D2 | C2 z2 z2 ^G2 | A6 =G2 | G4 G3 G | (G6 F2) | %96
w: Bless- * ed,|are they|that|_ have not|seen, and|yet, and|yet have be-|lie- *|
 G2 A2 B4- | B2 F2 G4- | G2 D2 E4- | E4 D4 | C6 C2 | =F4 F4 | z2 E2 A2 G2 | =F6 F2 | %104
w: ved, that have|_ not seen,|_ and yet,|_ yet|have be-|lie- ved,|that have not|seen, not|
 (E2 ^G2) (A2 B2) | (A2 G2) (^F2 E2) | ^D4 E2 F2 | G2 B,2 E4- | E8- | E4 A4- | A4 G4 | E4 C4 | %112
w: seen, _ yet _|have _ be- *|liev- ed, not|seen and yet,|_|* have,|_ yet|have be-|
 D8- | D8 | D8 |] %115
w: lie-||ved.|
V:3
 B4 B4 B4 | d8 c4 | B8 B4 | B4 A4 z4 | G4 G4 G4 | G4 c6 c2 | B4 B8 | A8 z4 | B4 B4 B4 | d8 d4 | %10
w: Oh that I|knew where|I might|find him,|that I might|come ev- en|to his|seat!|Oh that I|knew where|
 B8 B4 | _A4 B8 | B4 B4 B4 | B4 B6 B2 | (B4 =A4) e4 | d8 z4 | z12 | z8 B4 | B4 A6 A2 | G8 z4 | %20
w: I might|find him,|that I might|come ev- en|to _ his|seat!||and|he is not|there|
 z12 | c12 | (c4 B4) B4 | (d4 c4) z4 | (B4 c4) d4 | e4 e4 e4 | d4 d4 =e4 | f8 z4 | B8 B4 | %29
w: |he|is _ not|there, *|I _ go|for- ward but|he is not|there,|I go|
 B4 A4 z4 | B8 B4 | B4 A8 | B12 | B8 B4 | (B4 A8) | B8 f3 f | f8 d4 | A4 A4 A4 | A8 d3 d | f8 d4 | %40
w: for- ward|yet I|can- not,|can-|not per-|ceive _|him. on the|left hand,|where he doth|work, on the|right hand,|
 A4 A4 G4 | F8 ^F2 F2 | G4 e4 d4 | d4 c4 c4 | B4 A4 G4 | G4 ^F4 z4 | =F12 | =E4 E4 E4 | _E12 | %49
w: where he doth|work, but I|can- not be-|hold him, I|can- not be-|hold him.|He|hi- deth him-|self|
 D12 | B8 B4 | (B4 _A4) z4 | c12 | (c4 B4) z4 | d12 | d4 c4 c4 | _B8 G4- | G8 G4 | G12 | A12 |: %60
w: on|the right|hand _|hi-|deth, _|he|hi- deth him|self on|_ the|right|hand.|
[K:G][M:2/2] (c2 B2) A2 G2 | (F2 G2) (A2 B2) | c2 B2 A2 G2 | F2 G2 A2 B2 | c4 c4 | d6 B2 | %66
w: Bless- * ed are|they, _ are _|they that have not|seen, that have not|seen, not|seen, and|
 B4 c3 c | d4 d2 z2 | G8 | G6 F2 | G8- | G6 F2 | (G4 A2) B2 | (^c2 d2 e2) d2 | d4 F2 D2 | %75
w: yet have be-|lie- ved,|bless-|ed are|they,|_ that|have _ not|seen, _ _ and|yet have be-|
 E4 D2 z2 :| A4 A4- | A2 G2 (F4 | E2) F2 G2 A2 | B6 ^d2 | e2 =d2 c2 B2 | (A2 B2) (c2 B2) | %82
w: lie ved.|Bless- ed|_ are they|_ that have not|seen, are|they that have not|seen, _ that _|
 (e2 d2) (c2 B2) | A6 B2 | B4 c4 | B6 B2 | B4 c3 c | d4 d2 z2 | G8- | G4 F2 ^G2- | G4 A4- | %91
w: have _ not _|seen, that|have not|seen and|yet have be-|lie- ved,|Bless-|* ed, bless-|* ed|
 A6 ^G2 | A2 B2 c2 d2 | e4 A4 | B4 e3 d | d4 d2 d2 | d2 e2 f4 | B2 c2 d4 | (G2 A2) B4 | c4 A4 | %100
w: _ are|they that have not|seen, and|yet have be-|lie- ved, that|have not seen,|have not seen,|and _ yet,|have be-|
 G8 | A2 G2 A2 B2 | c6 B2 | A4 (B2 c2) | B2 z2 z4 | z2 B2 A2 G2 | F4 z2 B2 | B8- | B2 G2 c4- | %109
w: lie-|ved, that have not|seen, that|have not _|seen,|and have not|seen, not|seen|_ and yet,|
 c4 (e4 | d4) d4 | c4 G4 | A8- | A8 | B8 |] %115
w: _ have,|_ yet|have be-|lie-||ved.|
V:4
 G,4 G,4 G,4 | G,8 G,4 | G,8 G,4 | D,4 D,4 z4 | B,,4 B,,4 B,,4 | E,4 C,6 F,2 | B,,4 C,8 | D,8 z4 | %8
w: Oh that I|knew where|I might|find him,|that I might|come ev- en|to his|seat!|
 G,4 G,4 G,4 | G,8 G,4 | G,8 G,4 | _A,4 G,8 | F,4 F,4 F,4 | E,4 E,6 E,2 | C,8 C,4 | G,,8 z4 | z12 | %17
w: Oh that I|knew where|I might|find him,|that I might|come ev- en|to his|seat!||
 z8 G,4 | G,4 F,6 F,2 | E,8 z4 | z12 | B,12 | A,8 G,4 | F,8 z4 | F,8 F,4 | F,4 F,4 F,4 | %26
w: and|he is not|there||he|is not|there,|I go|for- ward but|
 F,4 F,4 F,4 | F,8 z4 | B,,4 _D,4 z4 | C,4 F,4 z4 | B,,4 _D,8 | C,4 F,8 | (_G,8 F,4) | E,8 E,4 | %34
w: he is not|there,|I go|for- ward|yet I|can- not,|can- *|not per-|
 F,12 | B,,8 F,3 F, | F,8 D,4 | A,,4 A,,4 A,,4 | D,8 z4 | z12 | F,4 =E,4 A,,4 | D,8 D,2 D,2 | %42
w: ceive|him, on the|left hand,|where he doth|work,||where he doth|work, but I|
 D,12 | D,12 | D,4 D,4 D,4 | D,4 D,4 z4 | =B,,12 | C,4 C,4 C,4 | C,12 | D,8 D,4 | E,12 | _A,,8 z4 | %52
w: can-|not,|can- not be-|hold him.|He|hi- deth him-|self|on the|right-|hand,|
 F,12 | B,,8 G,4- | G,12 | G,4 G,4 G,4 | G,8 B,,4- | B,,8 B,,4 | A,,12 | D,12 |:[K:G][M:2/2] D,8 | %61
w: hi-|deth, he|_|hi- deth him|self on|_ the|right|hand.|Bless-|
 D,6 D,2 | D,8- | D,2 E,2 F,2 G,2 | A,4 A,4 | B,6 B,2 | E,4 E,3 E, | (D,6 C,2) | %68
w: ed are|they,|_ that have not|seen, not|seen, and|yet have be-|lie- *|
 B,,2 (B,,2 C,2) D,2 | (E,2 A,,2) D,4 | z2 B,,2 C,2 D,2 | E,2 A,,2 D,4 | (G,,4 F,,2) G,,2 | %73
w: ved, bless- * ed|are _ they,|are they that|have not seen,|they _ that|
 A,,2 B,,2 ^C,2 D,2 | ^G,,4 A,,2 A,,2 | A,,4 D,2 z2 :| D,4 A,,4- | A,,2 A,,2 B,,4 | =C,8 | %79
w: have not seen, and|yet have be-|lie- ved.|Bless- ed|_ are they,|are|
 B,,6 B,2 | C2 B,2 A,2 G,2 | (F,2 G,2) (A,2 B,2) | (C2 B,2) (A,2 G,2) | F,6 ^D,2 | E,4 A,,4 | %85
w: they, are|they that have not|seen, _ that _|have _ not _|seen, that|have not|
 B,,6 B,,2 | E,4 E,3 E, | (D,6 C,2) | B,,2 (B,,2 C,2) D,2 | (E,2 A,,2) D,4 | z2 B,,2 C,2 G,,2 | %91
w: seen and|yet have be-|lie- *|ved, Bless- * ed,|are _ they,|are they that|
 =F,4 E,4 | A,,6 B,,2 | C,4 ^C,2 C,2 | D,8 | D,6 C2 | B,2 C2 D4 | G,2 A,2 B,4 | (E,2 F,2) G,4 | %99
w: have not|seen, and|yet, have be-|lie-|ved, that|have not seen,|have not seen,|and _ yet,|
 C,4 D,4 | E,8 | D,8 | C,4 C,4- | C,2 C,2 (B,,2 A,,2) | ^G,,2 E,2 F,2 ^G,2 | A,2 z2 z4 | %106
w: have be-|liev-|ed,|yet have|_ be- liev- *|ed, and have not|seen,|
 z2 B,,2 ^C,2 ^D,2 | E,6 =D,2 | =C,6 B,,2 | A,,4 (A,2 G,2) | F,4 G,4 | C,4 E,4 | D,8- | D,8 | %114
w: and hve not|seen, that|have not|seen, not _|seen yet|have be-|lie-||
 G,,8 |] %115
w: ved.|

